X: 32676
T: Polar Bear, The
R: jig
M: 6/8
K: Gmajor
D|:GFG BGB|dBd g2B|cee Bdd|ABc E2 (3E/F/E/|
DFA DFA|f2f fg/f/e|1 d^cd edc|{A}B3 B2 (3D/E/F/:|2 d^cd bfa|g3 g3||
K: Dmaj
|:DFA dfa|(3g/a/g/ fe B2c|dcd ABc|dcd ABA|
DFA dfa|(3g/a/g/ fe B2c|dcd ABc|1 d3 d3:|2 d3 d2 (3D/E/F/||

